!!!!SEGMENT: pl-wtm--a-27-143-72_krupinski-wiktor--nie-masz-nad-leguna.krn
!!!cenid: 19xx:43
!!!COM: Krupiński, Wiktor
!!!COM-rismID: pe50047127
!!!CDT: 1879-1951
!!!CNT: Polish
!!!OTL: Nie masz nad leguna
!!!PDT:
!!!AGN: Secular
!!!YEC: Copyright 2022 Narodowy Instytut Fryderyka Chopina (https://polishscores.org)
!!!YEM: License CC-BY-4.0 (https://creativecommons.org/licenses/by/4.0)
!!!SMS-siglum: PL-Wtm
!!!SMS-shelfmark: A.27.143/72
!!!SMS-variant:
!!!SMS-altvar:
!!!SMS-shelfwork: W
!!!NIFC-rismSourceID: 1001192546
!!!NIFC-rismChildID: 1001192546
!!!NIFC-islandoraID: pl-wtm:33557
!!!URL-pdf-islandora: https://repozytorium.nifc.pl/islandora/object/pl-wtm%3A33557/datastream/PDF/view
!!!URL-scan: https://polish.musicsources.pl/pl/lokalizacje/galeria/druki-muzyczne/20314/2 @EN{Scan on Polish Music Sources Website} @PL{Skany w portalu Dziedzictwo Muzyki Polskiej w otwartym dostępie}
!!!IIIF:
!!!ONB-nifc:
!!!AIN: 2 piano 1 vox
!!!key: F
**kern	**kern	**kern	**text	**text	**text	**text
*part3	*part2	*part1	*part1	*part1	*part1	*part1
*staff3	*staff2	*staff1	*staff1	*staff1	*staff1	*staff1
*I"FORTEPIAN.	*I"FORTEPIAN.	*I"ŚPIEW.	*	*	*	*
*I'[pf]	*I'[pf]	*I'[V]	*	*	*	*
*ICklav	*ICklav	*ICvox	*	*	*	*
*Ipiano	*Ipiano	*Ivox	*	*	*	*
*clefF4	*clefG2	*clefG2	*	*	*	*
*k[b-]	*k[b-]	*k[b-]	*	*	*	*
*F:	*F:	*F:	*	*	*	*
*M2/4	*M2/4	*M2/4	*	*	*	*
=1	=1	=1	=1	=1	=1	=1
!	!	!LO:TX:a:B:t=Vivo.	!	!	!	!
8FF/	8c/	2r	.	.	.	.
4C\ 4F 4A	4f/	.	.	.	.	.
8C\ 8F 8A	8g/	.	.	.	.	.
=2	=2	=2	=2	=2	=2	=2
8FF/	8a/L	2r	.	.	.	.
4C\ 4F 4A	8f/J	.	.	.	.	.
.	4c/	.	.	.	.	.
8C\ 8F 8A	.	.	.	.	.	.
=3	=3	=3	=3	=3	=3	=3
*	*^	*	*	*	*	*
8GG/	8.cc/L	2c\ 2e	2r	.	.	.	.
4C\ 4G 4B-	.	.	.	.	.	.	.
.	16b-/Jk	.	.	.	.	.	.
.	8a/L	.	.	.	.	.	.
8C\ 8G 8B-	8g/J	.	.	.	.	.	.
*	*v	*v	*	*	*	*	*
!!LO:LB:g=original	!	!	!	!	!	!
=4	=4	=4	=4	=4	=4	=4
4F\	4A/ 4c 4f	2r	.	.	.	.
4FF;/	4f;\ 4a 4cc 4ff	.	.	.	.	.
=5	=5	=5	=5	=5	=5	=5
8FF/	(>8c/	8c/	Nie	W wil-	Cho-	A
4C\ 4F 4A	4f/	4f/	masz	-got-	-dzi	na
8C\ 8F 8A	8g/	8g/	nad	-nym	do	po-
=6	=6	=6	=6	=6	=6	=6
8FF/	8a/L	8a/	le-	o-	dziew-	-że-
4C\ 4F 4A	8f/J	8f/	-gu-	-ko-	-czy-	-gna-
.	4c/)	4c/	-na-	-pie	-ny,	-nie
8C\ 8F 8A	.	.	.	.	.	.
=7	=7	=7	=7	=7	=7	=7
*	*^	*	*	*	*	*
4CC/ 4C	8.cc/L	2c\ 2e	8.cc\	wy-	jak	a	jak
.	16b-/Jk	.	16b-\	-trwal-	w pa-	po-	mo-
4r	8a/L	.	8a/	-sze-	-ła-	-co	-że
.	8g/J	.	8g/	-go	-cu	czy	na-
*	*v	*v	*	*	*	*	*
!!LO:LB:g=original	!	!	!	!	!	!
=8	=8	=8	=8	=8	=8	=8
8FF/ 8F	4A/ 4f	4f/	człe-	ży-	wie-	gro-
4C\ 4F 4A	.	.	.	.	.	.
.	4c/	4c/	-ka,	-je,	-cie:	-dzi:
8C\ 8F 8A	.	.	.	.	.	.
=9	=9	=9	=9	=9	=9	=9
*	*^	*	*	*	*	*
8CC/ 8C	8.g/L	2c\ 2e	8.g/	Cho-	Za-	Nie	Zo-
4G\ 4B- 4c	.	.	.	.	.	.	.
.	16b-/Jk	.	16b-/	-ciaż	-miast	masz	-sta-
.	8a/L	.	8a/	ku-	won-	nad	-wi
8G\ 8B- 8c	8g/J	.	8g/	-le	-nej	le-	pa-
=10	=10	=10	=10	=10	=10	=10	=10
8FF/ 8F	4ff/	2f\ 2a	4ff\	bi-	ka-	-gu-	-mią-
4F\ 4A 4c 4f	.	.	.	.	.	.	.
.	4cc/	.	4cc\	-ją	-wy	-na	-tkę
8A\ 8c 8f	.	.	.	.	.	.	.
*	*v	*v	*	*	*	*	*
!!LO:PB:g=original	!	!	!	!	!	!
=11	=11	=11	=11	=11	=11	=11
8BB-\ 8B-	8.f/L 8.b- 8.dd	8.dd\	le-	mę-	fi-	co
4G\ 4B- 4d	.	.	.	.	.	.
.	16cc/Jk	16cc\	-gun	-tną	-lu-	krzy-
.	8dd/L	8dd\	nie	lu-	-ta	-czy
8GG/ 8C 8G	8e/J 8g 8b- 8ee	8ee\	na-	-rę	na	i
=12	=12	=12	=12	=12	=12	=12
*^	*^	*	*	*	*	*
!	!	!LO:TX:b:B:t=rit.	!	!	!	!	!	!
4A/	2FF\ 2C 2E-X	4.ff/	2f\ 2a	4.ff\	-rze-	pi-	świe-	cho-
4G/	.	.	.	.	.	.	.	.
.	.	8ee-X/	.	8ee-X\	-ka,	-je,	-cie,	-dzi,
*v	*v	*	*	*	*	*	*	*
*	*v	*v	*	*	*	*	*
=13	=13	=13	=13	=13	=13	=13
!	!LO:TX:b:B:t=a tempo	!	!	!	!	!
8BBB-/L 8BB-	8.f/L 8.b- 8.dd	8.dd\	Choć	Choć	Kie-	Cho-
8F/J 8B- 8d	.	.	.	.	.	.
.	16f/Jk 16b- 16dd	16dd\	pod	gło-	-dy	-ciaż
8FF\L 8F	8f\L 8b- 8dd	8dd\	no-	-dny,	ją	on
8F\J 8B- 8d	8f\J 8b- 8dd 8ff	8ff\	-gi	we-	po-	nie
!!LO:LB:g=original	!	!	!	!	!	!
=14	=14	=14	=14	=14	=14	=14
4BBB-/ 4BB-	4f/ 4b- 4dd	4dd\	pad-	-so-	-ko-	ma-
8F\ 8B- 8d	8d/ 8f 8b-	4b-\	-nie	-ły,	-cha,	-larz,
8r	8r	.	.	.	.	.
=15	=15	=15	=15	=15	=15	=15
8.E-X\L 8.B-	8.e-X/L 8.g	8.g/	i	mi-	kie-	a-
16E-\Jk 16B-	16e-/Jk 16a	16a/	ku-	-na	-dy	-ni
8E-\L 8B-	8e-/L 8b-	8b-/	-la	za-	coś	nie
8E-\J 8B-	8e-/J 8g	8g/	o-	-dzie-	sko-	ar-
=16	=16	=16	=16	=16	=16	=16
4BB-\ 4B-	4d/ 4f	4f/	-gni-	-rzy-	-rzy-	-ty-
4BB-\ 4B-	4d/ 4f	4f/	-sta,	-sta,	-sta,	-sta,
=17	=17	=17	=17	=17	=17	=17
*	*^	*	*	*	*	*
8CC\L 8C	8.g/L	2en\	8.g/	Ma-	.	.	.
8G\J 8B- 8c	.	.	.	.	.	.	.
.	16b-/Jk	.	16b-\	-sze-	.	.	.
8GG\L 8G	8dd/L	.	8dd\	-ru-	.	.	.
8G\J 8B- 8c	8cc/J	.	8cc\	-je	.	.	.
!!LO:LB:g=original	!	!	!	!	!	!	!
=18	=18	=18	=18	=18	=18	=18	=18
8GG\L 8G	4.ee/	2e\ 2b-	4.ee\	da-	.	.	.
8G\J 8B- 8c	.	.	.	.	.	.	.
8CC\L 8C	.	.	.	.	.	.	.
8G\J 8B- 8c	8dd/	.	8dd\	-lej	.	.	.
*	*v	*v	*	*	*	*	*
=19	=19	=19	=19	=19	=19	=19
4CC/ 4C	8e/L 8cc	8cc\	i	.	.	.
.	8d/ 8b-	8b-\	tak	.	.	.
8DD/L 8D	8c/ 8a	8a/	so-	.	.	.
8EE/J 8E	8B-/J 8g	8g/	-bie	.	.	.
=20	=20	=20	=20	=20	=20	=20
4FF/ 4F	4f\ 4a 4cc 4ff	4ff\	świ-	.	.	.
8F\	8A/ 8c 8f	8f/	-sta:	.	.	.
8r	8r	8r	.	.	.	.
!!LO:LB:g=original	!	!	!	!	!	!
=21!|:	=21!|:	=21!|:	=21!|:	=21!|:	=21!|:	=21!|:
*	*8va	*	*	*	*	*
!	!	!LO:TX:a:t=GWID. (ad libitum)	!	!	!	!
8BBB-/L 8BB-	8bb-/L	8b-\	.	.	.	.
8F/J 8B- 8d	16bb-/L	16b-\	.	.	.	.
.	16bb-/JJ	16b-\	.	.	.	.
8DD\L 8D	16bb-/LL	16b-\	.	.	.	.
.	16ff/J	16f/	.	.	.	.
8F\J 8B- 8d	8bb-/J	8b-\	.	.	.	.
=22	=22	=22	=22	=22	=22	=22
8FF\L 8F	16ff/LL	16f/	.	.	.	.
.	16bb-/	16b-\	.	.	.	.
8F\J 8B- 8d	16ddd/	16dd\	.	.	.	.
.	16ff/JJ	16f/	.	.	.	.
8BBB-/L 8BB-	4bb-/	4b-\	.	.	.	.
8F/J 8B- 8d	.	.	.	.	.	.
=23	=23	=23	=23	=23	=23	=23
*	*^	*	*	*	*	*
8CC\L 8C	8fff/L	4ff\	8ff\	.	.	.	.
8F\J 8A 8e	16ccc/L	.	16cc\	.	.	.	.
.	16ccc/JJ	.	16cc\	.	.	.	.
8FF\L	8fff/L	4ryy	8ff\	.	.	.	.
8F\J 8A 8e	8ccc/J	.	8cc\	.	.	.	.
*	*v	*v	*	*	*	*	*
=24	=24	=24	=24	=24	=24	=24
8CC\L 8C	16ff/LL	16f/	.	.	.	.
.	16ccc/	16cc\	.	.	.	.
8F\J 8A 8e	16ff/	16f/	.	.	.	.
.	16ccc/JJ	16cc\	.	.	.	.
8BBB-/ 8BB-	8bb-/	8b-\	.	.	.	.
*	*X8va	*	*	*	*	*
8r	8r	8r	.	.	.	.
=:|!	=:|!	=:|!	=:|!	=:|!	=:|!	=:|!
*-	*-	*-	*-	*-	*-	*-
!!!system-decoration: s1{(s2,s3)}
!!!RDF**kern: > = above
!!!RDF**kern: < = below
!!!ENC: Berenika Jozajtis
!!!END: 2023-08-24
!!!ENC: Jan Barakat
!!!END: 2023-09-17
